X:1
T:Bold Riley
M:6/8
L:1/8
K:C
 G| cGF EDC| FGE D3| FFG E3| F2 G G2 G/2G/2| cGF EDC| FGF D3| FFG E3|\
 D2 C C3| GGG E G2| GGG F D2| F,FG E3| F2 G G3| GGG E G2| GGG F D2|\
 FFG E3| D2 C C2||
